X:23
T: Zou xikou, 2)
N: C0030
O: China,Shanxi, Fugu
S: I, 79, 2)]
N: leicht arrangiert von einem Vorsaenger. Diese Art Lieder gerieten
N: auch in ein volkstuemliches Theater mit Gesang und Tanz.- Die
N: Bauern dieser Region gingen oft in die mongolische Steppe oder
N: siedelten wegen ihres armen Bodens dorthin um.
N: Die letzten beiden Phrasen, 3 und 4) der 2. Strophe:
N: +1_+1_0_+2_  +5_+5_0_+3_  +2_0+3+1060  5_063020
N: +1+1+1+1+1_6_  5_3_+1_3_  2___ //
N: Vereinzelt Verzierungen.
R: Xiaodiao. Nann liqing]
M: 2/4
L: 1/16
K: Bb
d2b2c4- | c6d2 | b3cf2ed | c8 |
d2b2c3d | bb2ca2g2 | f8 |
b2b2z2c2 | f2f2z2d2 | c3db2ag | f2d4f2 |
b3bb2g2 | f2d2b2d2 | c8

@@@ Tune index: 6024
